X: 1
T:Horses Branle
M:4/4
L:1/8
Q:1/4=127
C:Trad
K:G
"A"\
|: G>A BB cBAc | BAGF E2D2 | G>A BB cBAc | BGAF G2 G2 :|
"B"\
|: d c/B/ AB c B/A/ GB | AGFG A>B A2 |  d c/B/ AB c B/A/ GB | AGGF G2 G2 :|
K:F
"C"\
|: B/A/ G B/A/ G FG A2 | DEFG ABAG |  B/A/ G B/A/ G FG A2 | DEFG GF G2 :|
